X:10863
T:Miss Douglas Moncrief. JC.207
M:C|
L:1/8
Q:200
S:John Clare,Poet,Helpstone (1793-1864)
R:Reel
O:England207
A:Northamptonshire
Z:P Headford
K:G
c|BGdG BG-GB|AEAG FD-Dc|BGdG BG-GB|EcAF G2(Gc)|!
BGdG BG-GB|cEAG FD-Dc|BGdB gdec|BGAFG3|!
|c|Bcdg ecgc|BGdG FD-Dc|B(cd).g efge|dBcA G/G/G(Gc)|!
B(cd).g ecgc|BGAG FD-Dc|Bdgb ceag|fdef g/g/g g|]
